www/assets/icons/factory.svg

<svg width="24" height="24" viewBox="0 0 24 24" xmlns="http://www.w3.org/2000/svg" fill='currentColor'><path d="M22 10V22H2V10L9 7V9L14 7V10H22ZM17.2 8.5L18 2H21L21.8 8.5H17.2ZM11 18H13V14H11V18ZM7 18H9V14H7V18ZM17 14H15V18H17V14Z"/></svg>

<svg xmlns="http://www.w3.org/2000/svg" width="24" height="24" viewBox="0 0 24 24" fill='currentColor'><path d="M22 10v12H2V10l7-3v2l5-2v3zm-4.8-1.5L18 2h3l.8 6.5zM11 18h2v-4h-2zm-4 0h2v-4H7zm10-4h-2v4h2z"/></svg>
